16x16/apps/mail.ru-cloud.svg

<svg xmlns="http://www.w3.org/2000/svg" width="16" height="16" version="1">
 <path style="fill:#1da6e8" d="M 8.4960938,2 C 7.3900568,2.0018823 6.4397769,2.5163921 5.6347656,3.2207031 5.2224724,2.9887472 4.957833,3.042848 4.5,3 2.3812429,3 1,4.6048667 1,7 V 7.00195 7.0039 C 1.0002103,7.1457666 1.1059597,7.2621901 1.1210938,7.4023438 0.46953273,8.121845 0.00193183,8.9859206 0,9.9960938 V 9.9980469 10 c 0,2.18545 1.8145503,4 4,4 0.6624117,-1.23e-4 1.2881959,-0.205379 1.8554688,-0.505859 C 6.5197197,13.811927 7.2438655,13.998842 7.9960938,14 H 8 8.0019531 C 8.6210159,13.999361 9.2191308,13.859076 9.7890625,13.638672 10.32982,13.862815 10.903439,13.999464 11.498047,14 H 11.5 C 13.961592,14 16,11.961592 16,9.5 16,7.4779221 14.599784,5.8115035 12.744141,5.2558594 12.188497,3.4002164 10.522078,2 8.5,2 H 8.49805 Z"/>
 <circle style="fill:#ffe174" cx="4" cy="10" r="2"/>
 <circle style="fill:#ffd338" cx="5" cy="7" r="2"/>
 <circle style="fill:#ffb822" cx="8.5" cy="6.5" r="2.5"/>
 <circle style="fill:#ff7c2d" cx="11.5" cy="9.5" r="2.5"/>
 <circle style="fill:#ff972d" cx="8" cy="9" r="3"/>
</svg>

<svg xmlns="http://www.w3.org/2000/svg" width="16" height="16" version="1"><path style="fill:#1da6e8" d="M8.496 2c-1.106.002-2.056.516-2.861 1.22C5.222 2.99 4.958 3.044 4.5 3 2.381 3 1 4.605 1 7v.004c0 .142.106.258.121.398C.47 8.122.001 8.986 0 9.996V10c0 2.185 1.815 4 4 4 .662 0 1.288-.205 1.855-.506A4.973 4.973 0 0 0 7.996 14h.006c.619 0 1.217-.14 1.787-.361.54.224 1.114.36 1.709.361h.002c2.462 0 4.5-2.038 4.5-4.5 0-2.022-1.4-3.688-3.256-4.244C12.188 3.4 10.522 2 8.5 2h-.002z"/><circle style="fill:#ffe174" cx="4" cy="10" r="2"/><circle style="fill:#ffd338" cx="5" cy="7" r="2"/><circle style="fill:#ffb822" cx="8.5" cy="6.5" r="2.5"/><circle style="fill:#ff7c2d" cx="11.5" cy="9.5" r="2.5"/><circle style="fill:#ff972d" cx="8" cy="9" r="3"/></svg>
